X:2260
T:Glen of Aherlow, The
O:england
C:Sean Ryan
R:Reel
M:C|
K:D
B2AF BFAF|E3F EDB,D|B2AF BFAF|DFAF FEE2|\
B2AF BFAF|E3F EDB,A,|B.EEF DEFA|dBAF FEE2||\
B2AF BFAF|~E3F EDB,D|B2AF BFAF|DFAF {G}FEEd|\
ABAF BFAF|EGFD {G}EDB,A,|B,~E3 DEFA|B/2c/2d AF {G}FEE2||\
eBBd efge|fdcd Adfd|eBBd egfe|dBAF FEE2|\
eB B/2A/2B EFGE|fdcd Adfd|B3d egfe|dBAF FEE2||\
e~B3 efge|f~d3 ADFD|e~B3 egfe|dBAF {G}FEE2|\
e~B3 ef {a}ge|f~d3 Adfd|B_B=Bd e/2f/2g fe|dBAF {G}FEE2||


